!!!!SEGMENT: pl-wn--sd-xvi-qu-273--103_gomolka-mikolaj--blogoslaw-duszo-moja-panu-swojemu.krn
!!!cenid: 15xx:308
!!!COM: Gomółka, Mikołaj
!!!COM-rismid: pe30013343
!!!CDT: ~1535->1591/04/30
!!!CNT: Polish
!!!GTL: Melodiae na psalterz polski
!!!OTL: CIII. Błogosław', duszo moja, Panu swojemu,
!!!ONB: Benedic anima mea Domino:
!!!PDT: 1580
!!!AGN: Sacred
!!!SMS-siglum: PL-Wn
!!!SMS-shelfmark: SD XVI.Qu.273
!!!SMS-shelfwork: 103 G
!!!NIFC-rismid:
!!!ONB-nifc: Melodiae na psalterz polski
**kern	**text	**text	**kern	**text	**text	**kern	**text	**text	**kern	**text	**text
*part4	*part4	*part4	*part3	*part3	*part3	*part2	*part2	*part2	*part1	*part1	*part1
*staff4	*staff4	*staff4	*staff3	*staff3	*staff3	*staff2	*staff2	*staff2	*staff1	*staff1	*staff1
*clefF4	*	*	*clefC4	*	*	*clefC4	*	*	*clefC2	*	*
*k[b-]	*	*	*k[b-]	*	*	*k[b-]	*	*	*k[b-]	*	*
*b-:	*	*	*b-:	*	*	*b-:	*	*	*b-:	*	*
*M3/1	*	*	*M3/1	*	*	*M3/1	*	*	*M3/1	*	*
*>[A,A,B]	*	*	*>[A,A,B]	*	*	*>[A,A,B]	*	*	*>[A,A,B]	*	*
*>A	*	*	*>A	*	*	*>A	*	*	*>A	*	*
=1-	=1-	=1-	=1-	=1-	=1-	=1-	=1-	=1-	=1-	=1-	=1-
2D/	Bło-	Bło-	2F/	Bło-	Bło-	2A/	Bło-	Bło-	2d/	Bło-	Bło-
2D/	-go-	-go-	2D/	-go-	-go-	2F/	-go-	-go-	2f\	-go-	-go-
2C/	-ſłaẃ	-ſłaẃ	2E/	.	.	4G/	.	.	2e/	.	.
.	.	.	.	.	.	4A/	.	.	.	.	.
1BB-/	.	.	2.F/	-ſłaẃ	-ſłaẃ	1B-\	-ſłaẃ	-ſłaẃ	1d/	-ſłaẃ,	-ſłaẃ
.	.	.	4G/	.	.	.	.	.	.	.	.
2AA/	du-	i-	2A/	du-	.	2F/	du-	i-	2c/	du-	i-
=2-	=2-	=2-	=2-	=2-	=2-	=2-	=2-	=2-	=2-	=2-	=2-
2.D/	-ſʒo	-mię-	1A\	-ſʒo	i-	2.F/	-ſʒo	-mię-	1f\	-ſʒo	-mię-
4C/	mo-	-nio-	.	.	.	4E/	.	-nio-	.	.	.
2BB-/	-iá,	-wi	2B-\	.	-mię-	2D/	mo-	.	2g\	mo-iá,	-nio-
2AA/	.	.	2c\	mo-	-nio-	2E/	-iá,	-wi	2.a\	.	-wi
2D/	pa-	ie-	2A/	-iá,	-wi	2F/	.	ie-	.	.	.
.	.	.	.	.	.	.	.	.	4g\	Pa-	ie-
1BB-/	-nu	-go	2.B-\	.	ie-	2D/	Pa-	-go	2f\	-nu	-go
=3-	=3-	=3-	=3-	=3-	=3-	=3-	=3-	=3-	=3-	=3-	=3-
!	!	!	!	!	!	!	!	!	!LO:SIC:v=powinno byc "świę"	!	!
.	.	.	.	.	.	2d\	-nu	.	1f\	ſwo-	swię
.	.	.	4A/	pa-	-go	.	.	.	.	.	.
1C/	.	świę-	4G/	-nu	.	2.c\	ſwo-	świę-	.	.	.
.	.	.	4F/	ſwo-	świę-	.	.	.	.	.	.
.	.	.	2G/	-ie-	-te-	.	.	.	2e/	-ie-	-te-
.	.	.	.	.	.	4B-\	-ie-	-te-	.	.	.
!	!	!	!	!	!	!	!	!	!LO:N:vis=1	!	!
1.FF/	ſwo-ie-mu,	-te-mu.	1.F/	-mu,	-mu	1.A\	-mu,	-mu	1.f\	-mu,	-mu
*>B	*	*	*>B	*	*	*>B	*	*	*>B	*	*
=4-:|!	=4-:|!	=4-:|!	=4-:|!	=4-:|!	=4-:|!	=4-:|!	=4-:|!	=4-:|!	=4-:|!	=4:|!-	=4-:|!
2F\	.	.	2A\	.	.	2c\	Bło-	.	2f\	Bło-	.
2F\	Bło-	.	2F/	Bło-	.	2A/	-go-	.	2a\	.	.
2E\	.	.	2G/	.	.	4B-\	.	.	2g\	-go-	.
.	.	.	.	.	.	4c\	.	.	.	.	.
2.D\	-go-	.	2A\	-go-	.	1d\	-ſłaẃ,	.	1f\	-ſłaẃ,	.
.	.	.	2A\	.	.	.	.	.	.	.	.
4C/	-ſłaẃ,	.	.	.	.	.	.	.	.	.	.
2BB-/	.	.	4B-\	-ſłaẃ,	.	2d\	du-	.	2f\	du-	.
.	.	.	4A\	.	.	.	.	.	.	.	.
=5-	=5-	=5-	=5-	=5-	=5-	=5-	=5-	=5-	=5-	=5-	=5-
2.C/	du-	.	4G/	du-	.	2c\	-ſʒo,	.	2.e\	-ſʒo,	.
.	.	.	4F/	-ſʒo,	.	.	.	.	.	.	.
.	.	.	4G/	pá-	.	2c\	pá-	.	.	.	.
!LO:SIC:v="pá-" po dźwięku	!	!	!	!	!	!	!	!	!	!	!
4BB-/	-ſʒo, pá-	.	4A\	.	.	.	.	.	4f\	pá-	.
!!LO:PB:g=original
4GG/	-nu:	.	2B-\	.	.	2d\	-nu:	.	2g\	-nu:	.
4AA/	.	.	.	.	.	.	.	.	.	.	.
2.BB-/	ie-	.	4F/	-nu:	.	2B-\	.	.	2.d/	.	.
.	.	.	4E/	ie-	.	.	.	.	.	.	.
.	.	.	4F/	.	.	2B-\	ie-	.	.	.	.
4AA/	-go	.	4G/	-go	.	.	.	.	4e/	ie-	.
4FF/	ob-fi	.	2A/	.	.	2c\	.	.	2f\	-go	.
4GG/	-té	.	.	.	.	.	.	.	.	.	.
=6-	=6-	=6-	=6-	=6-	=6-	=6-	=6-	=6-	=6-	=6-	=6-
2AA/	.	.	1A\	ob-	.	2c\	-go	.	2e/	ob-	.
1BB-/	Dá-	.	.	.	.	1B-\	ob-	.	1d/	-fi-	.
.	.	.	2G/	-fi-	.	.	.	.	.	.	.
2FF/	-ry	.	2A/	-té	.	2A/	-fi-	.	1c/	-té	.
1F\	nie-	.	1A\	.	.	4F/	-té	.	.	.	.
.	.	.	.	.	.	4G/	.	.	.	.	.
.	.	.	.	.	.	4A/	.	.	2c/	Dá-	.
.	.	.	.	.	.	4B-\	Dá-	.	.	.	.
=7-	=7-	=7-	=7-	=7-	=7-	=7-	=7-	=7-	=7-	=7-	=7-
2E\	-ch	.	2G/	.	.	2c\	.	.	2c/	-ry	.
!LO:SIC:v=przestawione litery	!	!	!	!	!	!	!	!	!	!	!
!LO:TX:a:t=P:"z"z kropką nie występuje w słowniku. We wszystkich głosach:problem	!	!	!	!	!	!	!	!	!	!	!
2D/	ʒáʒw-	.	2F/	Dá-	.	4A\	-ry	.	2f\	niech	.
.	.	.	.	.	.	4B-\	nie-	.	.	.	.
2C/	.	.	2G/	-ry	.	2c\	-ch	.	2e/	.	.
1BB-/	-dy	.	2.D/	nie-	.	2.F/	ʒáwʒ-	.	1d/	ʒáwʒ-	.
.	.	.	4E/	-ch	.	4G/	.	.	.	.	.
2AA/	bę-	.	4F/	ʒáwʒ-	.	4A\	-dy	.	2c/	-dy	.
.	.	.	4G/	.	.	4B-\	bę-	.	.	.	.
=8-	=8-	=8-	=8-	=8-	=8-	=8-	=8-	=8-	=8-	=8-	=8-
2.F\	-dą	.	4A/	.	.	2c\	-dą	.	2.f\	bę-	.
.	.	.	4B-\	-dy	.	.	.	.	.	.	.
.	.	.	2c\	bę-	.	2c\	.	.	.	.	.
4E\	w	.	.	.	.	.	.	.	4g\	-dą	.
4D/	ſer-	.	4f\	-dą	.	4d\	w	.	2a\	w ſer-	.
4C/	-cu	.	4e\	w	.	4e\	ſer-	.	.	.	.
1BB-/	twym	.	2.d\	.	.	2.f\	-cu	.	2.b-\	-cu	.
.	.	.	4c\	ſer-	.	4e\	.	.	4a\	.	.
2BB-/	.	.	2.B-\	-cu	.	2d\	twym	.	2g\	twym	.
=9-	=9-	=9-	=9-	=9-	=9-	=9-	=9-	=9-	=9-	=9-	=9-
2BB-/	ry-	.	.	.	.	2d\	.	.	1f\	.	.
.	.	.	4A/	twym	.	.	.	.	.	.	.
1C/	-té.	.	4G/	.	.	2.c\	ry-	.	.	.	.
.	.	.	4F/	ry-	.	.	.	.	.	.	.
.	.	.	2G/	-té.	.	.	.	.	2e\	ry-	.
.	.	.	.	.	.	4B-\	-té.	.	.	.	.
000FF/	.	.	000F/	.	.	000A\	.	.	000f\	-té.	.
=-	=-	=-	=-	=-	=-	=-	=-	=-	=-	=-	=-
*-	*-	*-	*-	*-	*-	*-	*-	*-	*-	*-	*-
!!!RDF**kern: l = terminal long
!!!system-decoration: s1,s2,s3,s4
!!!ENC: Leszek Kubiak
!!!END: data 2020-02-18
!!!URL-scan: https://polona.pl/item/melodiae-na-psalterz-polski,Nzk3MTM4ODQ/241 Scan on Polona
!!!IIIF: https://polona.pl/iiif/item/Nzk3MTM4ODQ/manifest.json
